X: 25718
T: Mary Devlin's
R: reel
M: 4/4
K: Bminor
|fBAB fBAB|fBAB AFDF|EBBA B3d|ABBA Bdfa|
fBAB fBAB|fBAB AFDF|E2BE3 BE|ABde B3 e:|
b3a f3a|edef d3c|dB3 ABde|fefa efaf|
b3a f3a|edef d3c|dB3 ABde|fBBA B3a:|

